X:1
T:Blake, LM
T:Blake, LM
T:Joseph Perry Holbrook, 1868
T:Public Domain Courtesy of the Cyber Hymnal™
C:Joseph Perry Holbrook, 1868
Z:Public Domain
Z:Courtesy of the Cyber Hymnal™
%%score ( 1 2 ) ( 3 4 )
L:1/8
Q:1/4=100
M:3/4
K:F
V:1 treble 
V:2 treble 
V:3 bass 
V:4 bass 
V:1
 [FA]2 | A4 B2 | [CA]4 [FA]2 | A4 B2 | [CA]4 ([FA][GB]) | (c3 A) (dc) | (c2 A2) [Ff]2 | %7
 ([Ge]3 [Fd]) ([Ec][Fd]) | [Ec]4 [EG]2 | ([EG]3 [DF]) ([CE][DF]) | ([EG]3 [GB]) ([FA][EG]) | %11
 ([FA]3 [CG]) ([A,F][CG]) | [FA]4 [Fc]2 | (f3 c) (ed) | (c2 A2) F2 | [FA]4 [EG]2 | F4 |] %17
V:2
 x2 | (F3 C) (ED) | x6 | (F3 C) (ED) | x6 | F4 F2 | F4 x2 | x6 | x6 | x6 | x6 | x6 | x6 | F4 F2 | %14
 F4 F2 | x6 | F4 |] %17
V:3
 F,2 | F,4 F,2 | F,4 F,2 | F,4 F,2 | F,4 (CB,) | (A,3 C) (B,A,) | (A,2 C2) [A,C]2 | %7
 (C3 =B,) [G,,G,]2 | [C,G,C]4 C,2 | C,6 | C,6 | F,,6 | F,,4 [F,A,]2 | C4 (DE) | %14
 ([A,F]2 [F,C]2) A,2 | [C,C]4 [C,B,]2 | [F,A,]4 |] %17
V:4
 F,2 | F,4 F,2 | F,4 F,2 | F,4 F,2 | F,4 F,2 | F,4 F,2 | F,4 x2 | G,4 x2 | x6 | x6 | x6 | x6 | x6 | %13
 (F,3 A,) B,2 | x4 (A,,D,) | x6 | x4 |] %17

